remix/Design/contrast-line.svg

<svg viewBox="0 0 24 24" fill="currentColor" xmlns="http://www.w3.org/2000/svg"><path d="M12 21.9967C6.47715 21.9967 2 17.5196 2 11.9967C2 6.47386 6.47715 1.9967 12 1.9967C17.5228 1.9967 22 6.47386 22 11.9967C22 17.5196 17.5228 21.9967 12 21.9967ZM12 19.9967C16.4183 19.9967 20 16.415 20 11.9967C20 7.57843 16.4183 3.9967 12 3.9967C7.58172 3.9967 4 7.57843 4 11.9967C4 16.415 7.58172 19.9967 12 19.9967ZM12 17.9967V5.9967C15.3137 5.9967 18 8.683 18 11.9967C18 15.3104 15.3137 17.9967 12 17.9967Z"/></svg>

<svg viewBox="0 0 24 24" xmlns="http://www.w3.org/2000/svg"><path fill="none" d="M0 0h24v24H0Z"/><path d="M12 22C6.477 22 2 17.523 2 12 2 6.477 6.477 2 12 2c5.523 0 10 4.477 10 10s-4.477 10-10 10Zm0-2v0c4.41 0 8-3.59 8-8 0-4.42-3.59-8-8-8v0c-4.42 0-8 3.58-8 8 0 4.41 3.58 8 8 8Zm0-2V6v0c3.31 0 6 2.68 6 6 0 3.31-2.69 6-6 6Z"/></svg>
